Origami/24x24/apps/teamcity.svg

<svg width="24" height="24" version="1" xmlns="http://www.w3.org/2000/svg">
 <path d="m12 2h-9c-0.554 0-1 0.446-1 1v9h10z" style="fill:#6655e4"/>
 <path d="m12 2h9c0.554 0 1 0.446 1 1v9h-10z" style="fill:#21d789"/>
 <path d="m12 22h-9c-0.554 0-1-0.446-1-1v-9h10z" style="fill:#14ddb1"/>
 <path d="m12 22h9c0.554 0 1-0.446 1-1v-9h-10z" style="fill:#2086e7"/>
 <path d="m3 2c-0.554 0-1 0.446-1 1v0.5c0-0.554 0.446-1 1-1h18c0.554 0 1 0.446 1 1v-0.5c0-0.554-0.446-1-1-1z" style="fill:#ffffff;opacity:.2"/>
 <path d="m3 22.5c-0.554 0-1-0.446-1-1v-0.5c0 0.554 0.446 1 1 1h18c0.554 0 1-0.446 1-1v0.5c0 0.554-0.446 1-1 1z" style="opacity:.2"/>
 <rect x="5" y="5" width="14" height="14" style="fill:#3f3f3f"/>
 <path d="m13.507122 11.499829s0 0.500002-1 0.500002c-0.999999 0-0.999999-1.000001-0.999999-2.000002 0-0.9999985 0-1.999999 0.999999-1.999999 1 0 1 0.499999 1 0.499999" style="fill:none;opacity:.2;stroke-linecap:round;stroke-linejoin:bevel;stroke-width:.99999994;stroke:#000000"/>
 <path d="m13.507122 10.999879s0 0.500002-1 0.500002c-0.999999 0-0.999999-1.000001-0.999999-2.000002 0-0.9999985 0-1.999999 0.999999-1.999999 1 0 1 0.499999 1 0.499999" style="fill:none;stroke-linecap:round;stroke-linejoin:bevel;stroke-width:.99999994;stroke:#ffffff"/>
 <path d="m7.5071222 15.99995h3.9999998" style="fill:none;opacity:.2;stroke-linecap:round;stroke:#000000"/>
 <path d="m7.5071222 15.5h3.9999998" style="fill:none;stroke-linecap:round;stroke:#ffffff"/>
 <path d="m7.5071212 7.99995h1.9999995m-0.9999985 4.000001v-4.000001" style="fill:none;opacity:.2;stroke-linecap:round;stroke-width:.99999994;stroke:#000000"/>
 <path d="m7.5071212 7.5h1.9999995m-0.9999985 4.000001v-4.000001" style="fill:none;stroke-linecap:round;stroke-width:.99999994;stroke:#ffffff"/>
</svg>

<svg xmlns="http://www.w3.org/2000/svg" width="24" height="24" version="1">
 <path style="fill:#6655e4" d="M 12,2 H 3 C 2.446,2 2,2.446 2,3 v 9 h 10 z"/>
 <path style="fill:#21d789" d="m 12,2 h 9 c 0.554,0 1,0.446 1,1 v 9 H 12 Z"/>
 <path style="fill:#14ddb1" d="M 12,22 H 3 C 2.446,22 2,21.554 2,21 v -9 h 10 z"/>
 <path style="fill:#2086e7" d="m 12,22 h 9 c 0.554,0 1,-0.446 1,-1 V 12 H 12 Z"/>
 <path style="opacity:0.2;fill:#ffffff" d="M 3,2 C 2.446,2 2,2.446 2,3 v 0.5 c 0,-0.554 0.446,-1 1,-1 h 18 c 0.554,0 1,0.446 1,1 V 3 C 22,2.446 21.554,2 21,2 Z"/>
 <path style="opacity:0.2" d="m 3,22.5 c -0.554,0 -1,-0.446 -1,-1 V 21 c 0,0.554 0.446,1 1,1 h 18 c 0.554,0 1,-0.446 1,-1 v 0.5 c 0,0.554 -0.446,1 -1,1 z"/>
 <rect style="fill:#3f3f3f" width="14" height="14" x="5" y="5"/>
 <path style="opacity:0.2;fill:none;stroke:#000000;stroke-width:0.99999994;stroke-linecap:round;stroke-linejoin:bevel" d="m 13.507122,11.499829 c 0,0 0,0.500002 -1,0.500002 -0.999999,0 -0.999999,-1.000001 -0.999999,-2.000002 0,-0.9999985 0,-1.999999 0.999999,-1.999999 1,0 1,0.499999 1,0.499999"/>
 <path style="fill:none;stroke:#ffffff;stroke-width:0.99999994;stroke-linecap:round;stroke-linejoin:bevel" d="m 13.507122,10.999879 c 0,0 0,0.500002 -1,0.500002 -0.999999,0 -0.999999,-1.000001 -0.999999,-2.000002 0,-0.9999985 0,-1.999999 0.999999,-1.999999 1,0 1,0.499999 1,0.499999"/>
 <path style="opacity:0.2;fill:none;stroke:#000000;stroke-linecap:round" d="M 7.5071222,15.99995 H 11.507122"/>
 <path style="fill:none;stroke:#ffffff;stroke-linecap:round" d="M 7.5071222,15.5 H 11.507122"/>
 <path style="opacity:0.2;fill:none;stroke:#000000;stroke-width:0.99999994;stroke-linecap:round" d="M 7.5071212,7.99995 H 9.5071207 M 8.5071222,11.999951 V 7.99995"/>
 <path style="fill:none;stroke:#ffffff;stroke-width:0.99999994;stroke-linecap:round" d="M 7.5071212,7.5 H 9.5071207 M 8.5071222,11.500001 V 7.5"/>
</svg>
